X: 2381
M: C
L: 1/8
K: Bb
(3(fga) |\
b2(ag) fedc | BABc dBFD |\
b2(ag) fedc | BABc dBFD |\
EGcd ecag | fedc B2 :|
|: (fe) |\
dDFB dfba | gEGB egbg |\
f=efg fdBd | edc=B cf=e_e |\
dDFB dfba | gEGB egbg |\
f=efg f_edc | Bbfd B2 :|


